cdn/fa/svgs/sharp-thin/down-from-line.svg

<svg xmlns="http://www.w3.org/2000/svg" viewBox="0 0 384 512"><!--! Font Awesome Pro 6.5.2 by @fontawesome - https://fontawesome.com License - https://fontawesome.com/license (Commercial License) Copyright 2024 Fonticons, Inc. --><path d="M128 288l-16 0-64 0-16 0 0 16 0 16L180.7 468.7 192 480l11.3-11.3L352 320l0-16 0-16-16 0-64 0-16 0 0-16 0-128 0-16-16 0-96 0-16 0 0 16 0 128 0 16zm0 16l16 0 0-16 0-144 96 0 0 144 0 16 16 0 80 0 0 9.4-144 144L48 313.4l0-9.4 80 0zM8 32L0 32 0 48l8 0 368 0 8 0 0-16-8 0L8 32z"/></svg>

<svg xmlns="http://www.w3.org/2000/svg" viewBox="0 0 384 512"><!--! Font Awesome Pro 6.5.1 by @fontawesome - https://fontawesome.com License - https://fontawesome.com/license (Commercial License) Copyright 2023 Fonticons, Inc. --><path d="M128 288H112 48 32v16 16L180.7 468.7 192 480l11.3-11.3L352 320V304 288H336 272 256V272 144 128H240 144 128v16V272v16zm0 16h16V288 144h96V288v16h16 80v9.4l-144 144L48 313.4V304h80zM8 32H0V48H8 376h8V32h-8H8z"/></svg>
